X: 37081
T: Miss Jeany Abernethie
C:I.Cooper
O:Glen Collection
R:strathspey
B:RSCDS 37-8(a)
Z:1997 by John Chambers <jc:trillian.mit.edu>
M:C
L:1/8
K:C
|: "C"c>G E>G c>d e>c | "G7"d>f e>g f<d d2 \
| "C"c>d e>c G>c e>a | "G7"g>f e>d "C"e<c c2 :|
|| "C"g>e c>g e<c g>e | "Dm"f>g a/g/f/e/ "G7"f<d d2 \
|  "C"g>e c>g "Am"e<c g>e | "Dm"f>a "G7"g>f "C"e<c c2 |
|| "C"g>e c>g e<c g>e | "Dm"f>g a/g/f/e/ "G7"f<d d2 \
|  "C"c>G c>e "G7"d>f e>g | "Dm"f>a "G7"g>f "C"e<c c2 |]
%%center Book37/37081-Miss_Jeany_Abernethie_Str-JC.abc

%%sep 1 1 500
%%sep 1 1 500

